X: 19303
T: Jack Armstrong's
R: hornpipe
M: 4/4
K: Dmajor
|:FG|Adcd fdcd|ge^de a2ge|fdAd DFAd|cdec A2 FG|
Adcd fdcd|ge^de abag|fdfa gfed|(3cBA fed2:|
|:cd|eA (3AAA EAce|(3gag fg eAce|a^gba =gfed|(3cea B^ga2 (3ba=g|
fdcd gecA|dDEF (3GAB (3cde|(3fga fa gfed|(3cea Acd2:|

